images/c-cursor.svg

<svg fill="none" height="46" viewBox="0 0 26 46" width="26" xmlns="http://www.w3.org/2000/svg" xmlns:xlink="http://www.w3.org/1999/xlink"><filter id="a" color-interpolation-filters="sRGB" filterUnits="userSpaceOnUse" height="44.1885" width="24.8027" x=".905762" y=".905762"><feFlood flood-opacity="0" result="BackgroundImageFix"/><feColorMatrix in="SourceAlpha" result="hardAlpha" type="matrix" values="0 0 0 0 0 0 0 0 0 0 0 0 0 0 0 0 0 0 127 0"/><feOffset dy="2"/><feGaussianBlur stdDeviation="1"/><feComposite in2="hardAlpha" operator="out"/><feColorMatrix type="matrix" values="0 0 0 0 0 0 0 0 0 0 0 0 0 0 0 0 0 0 0.25 0"/><feBlend in2="BackgroundImageFix" mode="normal" result="effect1_dropShadow_247_2099"/><feBlend in="SourceGraphic" in2="effect1_dropShadow_247_2099" mode="normal" result="shape"/></filter><g filter="url(#a)"><path d="m5 4.38451c0-.3672.14587-.71935.40551-.979.25965-.25964.6118-.40551.979-.40551 2.38689 0 4.35569.79471 5.70419 1.56726.4818.27414.8888.54827 1.2184.79194.3295-.24367.7365-.5178 1.2183-.79194 1.7328-1.00946 3.6989-1.54966 5.7042-1.56726.3672 0 .7193.14587.979.40551.2596.25965.4055.6118.4055.979 0 .36719-.1459.71935-.4055.97899-.2597.25965-.6118.40552-.979.40552-1.7666 0-3.2591.5898-4.3307 1.20175-.4224.24062-.826.51275-1.2073.81409v11.82924h1.3845c.3672 0 .7193.1459.979.4055.2596.2597.4055.6118.4055.979s-.1459.7194-.4055.979c-.2597.2597-.6118.4055-.979.4055h-1.3845v11.8293c.2769.2215.6867.5178 1.2073.8141 1.0716.6119 2.5641 1.2017 4.3307 1.2017.3672 0 .7193.1459.979.4055.2596.2597.4055.6118.4055.979s-.1459.7194-.4055.979c-.2597.2597-.6118.4055-.979.4055-2.0053-.0176-3.9714-.5578-5.7042-1.5672-.4208-.2386-.8276-.5012-1.2183-.7864-.3907.2862-.7975.5497-1.2184.7891-1.7328 1.0095-3.69888 1.5497-5.70419 1.5673-.3672 0-.71935-.1459-.979-.4055-.25964-.2597-.40551-.6118-.40551-.979s.14587-.7194.40551-.979c.25965-.2596.6118-.4055.979-.4055 1.76663 0 3.25913-.5898 4.33079-1.2018.5205-.2963.9276-.5925 1.2072-.8141v-11.832h-1.3845c-.3672 0-.71931-.1458-.97896-.4055-.25965-.2596-.40551-.6118-.40551-.979s.14586-.7193.40551-.979c.25965-.2596.61176-.4055.97896-.4055h1.3845v-11.82924c-.3813-.30134-.7849-.57347-1.2072-.81409-1.31468-.7701-2.80731-1.1843-4.33079-1.20175-.3672 0-.71935-.14587-.979-.40552-.25964-.25964-.40551-.6118-.40551-.97899z" fill="#e5e5e5"/><path d="m12.0887 37.4327c-1.7328 1.0095-3.69888 1.5497-5.70419 1.5673-.3672 0-.71935-.1459-.979-.4055-.25964-.2597-.40551-.6118-.40551-.979s.14587-.7194.40551-.979c.25965-.2596.6118-.4055.979-.4055 1.76663 0 3.25913-.5898 4.33079-1.2018.5205-.2963.9276-.5925 1.2072-.8141m.1662 3.2176.5178.9101c.0015-.0008.0031-.0017.0046-.0026m-.5224-.9075.5271.9048c-.0016.0009-.0031.0018-.0047.0027m-.5224-.9075c.4209-.2394.8277-.5029 1.2184-.7891.3907.2852.7975.5478 1.2183.7864l-8.14792-30.61389m6.23362 31.52409c-1.8889 1.0994-4.0318 1.6877-6.2174 1.7069h-.00919c-.64491 0-1.26339-.2562-1.71941-.7122-.45601-.456-.7122-1.0745-.7122-1.7194s.25619-1.2634.71221-1.7194c.45601-.456 1.0745-.7122 1.7194-.7122 1.53229 0 2.84549-.5123 3.81149-1.064l.0013-.0007c.2582-.1469.485-.2939.6781-.4292m1.7357 4.6502c.2366-.1347.469-.2764.697-.4249.2276.1477.4595.2886.6956.4225 1.8888 1.0992 4.0314 1.6873 6.2167 1.7065h.0092c.6449 0 1.2634-.2562 1.7194-.7122s.7122-1.0745.7122-1.7194-.2562-1.2634-.7122-1.7194l-.7404.7404.7404-.7404c-.456-.456-1.0745-.7122-1.7194-.7122-1.5323 0-2.8455-.5123-3.8115-1.0639l-.0013-.0008c-.2586-.1472-.4859-.294-.6781-.4283v-10.2579h.3374c.6449 0 1.2634-.2562 1.7194-.7122s.7122-1.0745.7122-1.7194-.2562-1.2634-.7122-1.7194-1.0745-.7122-1.7194-.7122h-.3374v-10.25677c.2193-.15364.4457-.29702.6785-.42966l.0009-.00052c.966-.55164 2.2792-1.06393 3.8115-1.06393.6449 0 1.2634-.25619 1.7194-.7122l-.7404-.74042.7404.74041c.456-.45601.7122-1.0745.7122-1.7194s-.2562-1.26339-.7122-1.71941l-.7404.74041.7404-.74041c-.456-.45601-1.0745-.7122-1.7194-.7122v-.00004l-.0092.00008c-2.1856.01919-4.3284.60748-6.2174 1.70686-.2506.1427-.4827.28549-.6959.42476-.2142-.13988-.4474-.2833-.6992-.42663-1.4553-.83346-3.6031-1.70503-6.22339-1.70503-.6449 0-1.26339.25619-1.71941.7122-.45601.45602-.7122 1.07451-.7122 1.71941s.25619 1.26339.7122 1.7194c.45436.45436 1.07001.71034 1.71238.7122m4.49792 26.87389v.5251h1.0471m-1.0471-.5251c.1542-.1079.2869-.2084.397-.2957l.6501.8208m-1.0471-.5251v-10.2598m1.0471 10.7849v-10.7849h-1.0471m0 0h-.3374c-.64487 0-1.26335-.2562-1.71937-.7122l.70822-.7082-.70822.7082c-.45602-.456-.7122-1.0745-.7122-1.7194s.25619-1.2634.7122-1.7194l.74041.7404m1.31636 3.4106v-1.0471m0 0h-.3374c-.3672 0-.71931-.1458-.97896-.4055-.25965-.2596-.40551-.6118-.40551-.979s.14586-.7193.40551-.979m1.31636 2.3635-4.49089-16.61408c1.52348.01745 3.01611.43165 4.33079 1.20175.4223.24062.8259.51275 1.2072.81409v10.78214h-1.0471m0 3.8161-4.49792-15.56699m3.18156 13.20349c.25965-.2596.61176-.4055.97896-.4055h.3374v-1.0471m-1.31636 1.4526-.74041-.7404c.45601-.456 1.0745-.7122 1.71937-.7122h.3374m0 0v-10.25677c-.2193-.15364-.4457-.29702-.6785-.42966l-.0109-.00624v-.00007c-1.15619-.67728-2.46872-1.04194-3.80852-1.05815" stroke="#e5e5e5" stroke-width="2.0942"/></g><path d="m5 4.38451c0-.3672.14587-.71935.40551-.979.25965-.25964.6118-.40551.979-.40551 2.38689 0 4.35569.79471 5.70419 1.56726.4818.27414.8888.54827 1.2184.79194.3295-.24367.7365-.5178 1.2183-.79194 1.7328-1.00946 3.6989-1.54966 5.7042-1.56726.3672 0 .7193.14587.979.40551.2596.25965.4055.6118.4055.979 0 .36719-.1459.71935-.4055.97899-.2597.25965-.6118.40552-.979.40552-1.7666 0-3.2591.5898-4.3307 1.20175-.4224.24062-.826.51275-1.2073.81409v11.82924h1.3845c.3672 0 .7193.1459.979.4055.2596.2597.4055.6118.4055.979s-.1459.7194-.4055.979c-.2597.2597-.6118.4055-.979.4055h-1.3845v11.8293c.2769.2215.6867.5178 1.2073.8141 1.0716.6119 2.5641 1.2017 4.3307 1.2017.3672 0 .7193.1459.979.4055.2596.2597.4055.6118.4055.979s-.1459.7194-.4055.979c-.2597.2597-.6118.4055-.979.4055-2.0053-.0176-3.9714-.5578-5.7042-1.5672-.4208-.2386-.8276-.5012-1.2183-.7864-.3907.2862-.7975.5497-1.2184.7891-1.7328 1.0095-3.69888 1.5497-5.70419 1.5673-.3672 0-.71935-.1459-.979-.4055-.25964-.2597-.40551-.6118-.40551-.979s.14587-.7194.40551-.979c.25965-.2596.6118-.4055.979-.4055 1.76663 0 3.25913-.5898 4.33079-1.2018.5205-.2963.9276-.5925 1.2072-.8141v-11.832h-1.3845c-.3672 0-.71931-.1458-.97896-.4055-.25965-.2596-.40551-.6118-.40551-.979s.14586-.7193.40551-.979c.25965-.2596.61176-.4055.97896-.4055h1.3845v-11.82924c-.3813-.30134-.7849-.57347-1.2072-.81409-1.31468-.7701-2.80731-1.1843-4.33079-1.20175-.3672 0-.71935-.14587-.979-.40552-.25964-.25964-.40551-.6118-.40551-.97899z" fill="#333"/></svg>

<svg width="26" height="46" viewBox="0 0 26 46" fill="none" xmlns="http://www.w3.org/2000/svg">
<g filter="url(#filter0_d_247_2099)">
<path d="M5 4.38451C5 4.01731 5.14587 3.66516 5.40551 3.40551C5.66516 3.14587 6.01731 3 6.38451 3C8.7714 3 10.7402 3.79471 12.0887 4.56726C12.5705 4.8414 12.9775 5.11553 13.3071 5.3592C13.6366 5.11553 14.0436 4.8414 14.5254 4.56726C16.2582 3.5578 18.2243 3.0176 20.2296 3C20.5968 3 20.9489 3.14587 21.2086 3.40551C21.4682 3.66516 21.6141 4.01731 21.6141 4.38451C21.6141 4.7517 21.4682 5.10386 21.2086 5.3635C20.9489 5.62315 20.5968 5.76902 20.2296 5.76902C18.463 5.76902 16.9705 6.35882 15.8989 6.97077C15.4765 7.21139 15.0729 7.48352 14.6916 7.78486V19.6141H16.0761C16.4433 19.6141 16.7954 19.76 17.0551 20.0196C17.3147 20.2793 17.4606 20.6314 17.4606 20.9986C17.4606 21.3658 17.3147 21.718 17.0551 21.9776C16.7954 22.2373 16.4433 22.3831 16.0761 22.3831H14.6916V34.2124C14.9685 34.4339 15.3783 34.7302 15.8989 35.0265C16.9705 35.6384 18.463 36.2282 20.2296 36.2282C20.5968 36.2282 20.9489 36.3741 21.2086 36.6337C21.4682 36.8934 21.6141 37.2455 21.6141 37.6127C21.6141 37.9799 21.4682 38.3321 21.2086 38.5917C20.9489 38.8514 20.5968 38.9972 20.2296 38.9972C18.2243 38.9796 16.2582 38.4394 14.5254 37.43C14.1046 37.1914 13.6978 36.9288 13.3071 36.6436C12.9164 36.9298 12.5096 37.1933 12.0887 37.4327C10.3559 38.4422 8.38982 38.9824 6.38451 39C6.01731 39 5.66516 38.8541 5.40551 38.5945C5.14587 38.3348 5 37.9827 5 37.6155C5 37.2483 5.14587 36.8961 5.40551 36.6365C5.66516 36.3769 6.01731 36.231 6.38451 36.231C8.15114 36.231 9.64364 35.6412 10.7153 35.0292C11.2358 34.7329 11.6429 34.4367 11.9225 34.2151V22.3831H10.538C10.1708 22.3831 9.81869 22.2373 9.55904 21.9776C9.29939 21.718 9.15353 21.3658 9.15353 20.9986C9.15353 20.6314 9.29939 20.2793 9.55904 20.0196C9.81869 19.76 10.1708 19.6141 10.538 19.6141H11.9225V7.78486C11.5412 7.48352 11.1376 7.21139 10.7153 6.97077C9.40062 6.20067 7.90799 5.78647 6.38451 5.76902C6.01731 5.76902 5.66516 5.62315 5.40551 5.3635C5.14587 5.10386 5 4.7517 5 4.38451Z" fill="#E5E5E5"/>
<path d="M12.0887 37.4327C10.3559 38.4422 8.38982 38.9824 6.38451 39C6.01731 39 5.66516 38.8541 5.40551 38.5945C5.14587 38.3348 5 37.9827 5 37.6155C5 37.2483 5.14587 36.8961 5.40551 36.6365C5.66516 36.3769 6.01731 36.231 6.38451 36.231C8.15114 36.231 9.64364 35.6412 10.7153 35.0292C11.2358 34.7329 11.6429 34.4367 11.9225 34.2151M12.0887 37.4327L12.6065 38.3428C12.608 38.342 12.6096 38.3411 12.6111 38.3402M12.0887 37.4327L12.6158 38.3375C12.6142 38.3384 12.6127 38.3393 12.6111 38.3402M12.0887 37.4327C12.5096 37.1933 12.9164 36.9298 13.3071 36.6436C13.6978 36.9288 14.1046 37.1914 14.5254 37.43L6.37748 6.81611M12.6111 38.3402C10.7222 39.4396 8.5793 40.0279 6.3937 40.0471L6.38451 40.0471C5.7396 40.0471 5.12112 39.7909 4.6651 39.3349C4.20909 38.8789 3.9529 38.2604 3.9529 37.6155C3.9529 36.9706 4.20909 36.3521 4.66511 35.8961C5.12112 35.4401 5.73961 35.1839 6.38451 35.1839C7.9168 35.1839 9.23 34.6716 10.196 34.1199L10.1973 34.1192C10.4555 33.9723 10.6823 33.8253 10.8754 33.69M12.6111 38.3402C12.8477 38.2055 13.0801 38.0638 13.3081 37.9153C13.5357 38.063 13.7676 38.2039 14.0037 38.3378C15.8925 39.437 18.0351 40.0251 20.2204 40.0443V40.0443H20.2296C20.8745 40.0443 21.493 39.7881 21.949 39.3321C22.405 38.8761 22.6612 38.2576 22.6612 37.6127C22.6612 36.9678 22.405 36.3493 21.949 35.8933L21.2086 36.6337L21.949 35.8933C21.493 35.4373 20.8745 35.1811 20.2296 35.1811C18.6973 35.1811 17.3841 34.6688 16.4181 34.1172L16.4168 34.1164C16.1582 33.9692 15.9309 33.8224 15.7387 33.6881V23.4302H16.0761C16.721 23.4302 17.3395 23.174 17.7955 22.718C18.2515 22.262 18.5077 21.6435 18.5077 20.9986C18.5077 20.3537 18.2515 19.7352 17.7955 19.2792C17.3395 18.8232 16.721 18.567 16.0761 18.567H15.7387V8.31023C15.958 8.15659 16.1844 8.01321 16.4172 7.88057L16.4181 7.88005C17.3841 7.32841 18.6973 6.81612 20.2296 6.81612C20.8745 6.81612 21.493 6.55993 21.949 6.10392L21.2086 5.3635L21.949 6.10391C22.405 5.6479 22.6612 5.02941 22.6612 4.38451C22.6612 3.73961 22.405 3.12112 21.949 2.6651L21.2086 3.40551L21.949 2.6651C21.493 2.20909 20.8745 1.9529 20.2296 1.9529V1.95286L20.2204 1.95294C18.0348 1.97213 15.892 2.56042 14.003 3.6598C13.7524 3.8025 13.5203 3.94529 13.3071 4.08456C13.0929 3.94468 12.8597 3.80126 12.6079 3.65793C11.1526 2.82447 9.0048 1.9529 6.38451 1.9529C5.73961 1.9529 5.12112 2.20909 4.6651 2.6651C4.20909 3.12112 3.9529 3.73961 3.9529 4.38451C3.9529 5.02941 4.20909 5.6479 4.6651 6.10391C5.11946 6.55827 5.73511 6.81425 6.37748 6.81611M10.8754 33.69V34.2151H11.9225M10.8754 33.69C11.0296 33.5821 11.1623 33.4816 11.2724 33.3943L11.9225 34.2151M10.8754 33.69V23.4302M11.9225 34.2151V23.4302H10.8754M10.8754 23.4302H10.538C9.89313 23.4302 9.27465 23.174 8.81863 22.718L9.52685 22.0098L8.81863 22.718C8.36261 22.262 8.10643 21.6435 8.10643 20.9986C8.10643 20.3537 8.36262 19.7352 8.81863 19.2792L9.55904 20.0196M10.8754 23.4302V22.3831M10.8754 22.3831H10.538C10.1708 22.3831 9.81869 22.2373 9.55904 21.9776C9.29939 21.718 9.15353 21.3658 9.15353 20.9986C9.15353 20.6314 9.29939 20.2793 9.55904 20.0196M10.8754 22.3831L6.38451 5.76902C7.90799 5.78647 9.40062 6.20067 10.7153 6.97077C11.1376 7.21139 11.5412 7.48352 11.9225 7.78486V18.567H10.8754M10.8754 22.3831L6.37748 6.81611M9.55904 20.0196C9.81869 19.76 10.1708 19.6141 10.538 19.6141H10.8754V18.567M9.55904 20.0196L8.81863 19.2792C9.27464 18.8232 9.89313 18.567 10.538 18.567H10.8754M10.8754 18.567V8.31023C10.6561 8.15659 10.4297 8.01321 10.1969 7.88057L10.186 7.87433L10.186 7.87426C9.02981 7.19698 7.71728 6.83232 6.37748 6.81611" stroke="#E5E5E5" stroke-width="2.0942"/>
</g>
<path d="M5 4.38451C5 4.01731 5.14587 3.66516 5.40551 3.40551C5.66516 3.14587 6.01731 3 6.38451 3C8.7714 3 10.7402 3.79471 12.0887 4.56726C12.5705 4.8414 12.9775 5.11553 13.3071 5.3592C13.6366 5.11553 14.0436 4.8414 14.5254 4.56726C16.2582 3.5578 18.2243 3.0176 20.2296 3C20.5968 3 20.9489 3.14587 21.2086 3.40551C21.4682 3.66516 21.6141 4.01731 21.6141 4.38451C21.6141 4.7517 21.4682 5.10386 21.2086 5.3635C20.9489 5.62315 20.5968 5.76902 20.2296 5.76902C18.463 5.76902 16.9705 6.35882 15.8989 6.97077C15.4765 7.21139 15.0729 7.48352 14.6916 7.78486V19.6141H16.0761C16.4433 19.6141 16.7954 19.76 17.0551 20.0196C17.3147 20.2793 17.4606 20.6314 17.4606 20.9986C17.4606 21.3658 17.3147 21.718 17.0551 21.9776C16.7954 22.2373 16.4433 22.3831 16.0761 22.3831H14.6916V34.2124C14.9685 34.4339 15.3783 34.7302 15.8989 35.0265C16.9705 35.6384 18.463 36.2282 20.2296 36.2282C20.5968 36.2282 20.9489 36.3741 21.2086 36.6337C21.4682 36.8934 21.6141 37.2455 21.6141 37.6127C21.6141 37.9799 21.4682 38.3321 21.2086 38.5917C20.9489 38.8514 20.5968 38.9972 20.2296 38.9972C18.2243 38.9796 16.2582 38.4394 14.5254 37.43C14.1046 37.1914 13.6978 36.9288 13.3071 36.6436C12.9164 36.9298 12.5096 37.1933 12.0887 37.4327C10.3559 38.4422 8.38982 38.9824 6.38451 39C6.01731 39 5.66516 38.8541 5.40551 38.5945C5.14587 38.3348 5 37.9827 5 37.6155C5 37.2483 5.14587 36.8961 5.40551 36.6365C5.66516 36.3769 6.01731 36.231 6.38451 36.231C8.15114 36.231 9.64364 35.6412 10.7153 35.0292C11.2358 34.7329 11.6429 34.4367 11.9225 34.2151V22.3831H10.538C10.1708 22.3831 9.81869 22.2373 9.55904 21.9776C9.29939 21.718 9.15353 21.3658 9.15353 20.9986C9.15353 20.6314 9.29939 20.2793 9.55904 20.0196C9.81869 19.76 10.1708 19.6141 10.538 19.6141H11.9225V7.78486C11.5412 7.48352 11.1376 7.21139 10.7153 6.97077C9.40062 6.20067 7.90799 5.78647 6.38451 5.76902C6.01731 5.76902 5.66516 5.62315 5.40551 5.3635C5.14587 5.10386 5 4.7517 5 4.38451Z" fill="#333333"/>
<defs>
<filter id="filter0_d_247_2099" x="0.905762" y="0.905762" width="24.8027" height="44.1885" filterUnits="userSpaceOnUse" color-interpolation-filters="sRGB">
<feFlood flood-opacity="0" result="BackgroundImageFix"/>
<feColorMatrix in="SourceAlpha" type="matrix" values="0 0 0 0 0 0 0 0 0 0 0 0 0 0 0 0 0 0 127 0" result="hardAlpha"/>
<feOffset dy="2"/>
<feGaussianBlur stdDeviation="1"/>
<feComposite in2="hardAlpha" operator="out"/>
<feColorMatrix type="matrix" values="0 0 0 0 0 0 0 0 0 0 0 0 0 0 0 0 0 0 0.25 0"/>
<feBlend mode="normal" in2="BackgroundImageFix" result="effect1_dropShadow_247_2099"/>
<feBlend mode="normal" in="SourceGraphic" in2="effect1_dropShadow_247_2099" result="shape"/>
</filter>
</defs>
</svg>
